X:1
T:Gesammelte Motetten
T:Schaff in mir Gott ein reines Herz
T:Johann Heinrich Rolle
T:Schaff in mir Gott ein reines Herz
T:CPDL - Creative Commons Attribution Non Commercial 3.0
T:CPDL - Creative Commons Attribution Non Commercial 3.0
T:CPDL - Creative Commons Attribution Non Commercial 3.0
T:CPDL - Creative Commons Attribution Non Commercial 3.0
T:CPDL - Creative Commons Attribution Non Commercial 3.0
T:CPDL - Creative Commons Attribution Non Commercial 3.0
T:CPDL - Creative Commons Attribution Non Commercial 3.0
T:CPDL - Creative Commons Attribution Non Commercial 3.0
T:CPDL - Creative Commons Attribution Non Commercial 3.0
T:CPDL - Creative Commons Attribution Non Commercial 3.0
T:CPDL - Creative Commons Attribution Non Commercial 3.0
T:CPDL - Creative Commons Attribution Non Commercial 3.0
C:Johann Heinrich Rolle
Z:CPDL - Creative Commons Attribution Non Commercial 3.0
%%score [ 1 2 3 4 ]
L:1/8
Q:1/4=100
M:4/4
K:G
V:1 treble nm="Sopran"
V:2 treble nm="Alt"
V:3 treble-8 nm="Tenor"
V:4 bass nm="Bass"
V:1
"^Molto moderato"!mf! B4 B2 d2 | G4 z4 | e4 e2 g2 | c4 c4 | (c2 e2 d2 c2 | B8- | B2 d2 c2) B2 | %7
w: Schaff' in mir|Gott,|schaff in mir|Gott ein|rei- * * *||* * * nes|
 (B2 A2) z2 A2 | d4 d4 | (d2 cB) A2 G2 | F4 G2 G2 | G4 F4 | G4 z4 | z2!p! A2"^cresc." A2 A2 | %14
w: Herz _ und|gib mir|ei- * * * nen|neu- en, ge-|wis- sen|Geist,|und gib mir|
 A2 AA A2 A2 | A4 A2 A2 | A4 B2!f! d2 | d4 ^c4 | d4 z4 | z8 |!mf! d4 d2 f2 | B4 ^c2 cB | %22
w: ei- nen ge- wis- sen|Geist, ei- nen|neu- en ge-|wis- sen|Geist.||Schaff in mir|Gott, in mir _|
 ^A4!p! B4 | (^c4 d4 | ^A4 B4 | ^c4) d4 | (d2 ^c2) z2 c2 |!<(! d2 d2 d2 d2!<)! | d4 d4 | %29
w: Gott ein|rei- *||* nes|Herz, _ und|gib mir ei- nen|neu- en,|
 ^c2 c2 c2 c2 | =c2 cc c2 c2 | !fermata!c4!f! B2 A2 | G8- | G4 F2 D2 | G4 G2 c2 | B4 A4 || %36
w: gib mir ei- nen|neu- en ge- wis- sen|Geist, ei- nen|neu-|* en ge-|wis- sen, ge-|wis- sen|
[Q:1/4=130]"^Presto" G2 z2 z4 | z8 | z8 | z8 | z8 | z3 B e3 e | A3 A d3 d | G3 G c4- | (c4 B3) ^c | %45
w: Geist,|||||ver- wirf mich|nicht, ver- wirf mich|nicht von dei-|* * nem|
 d4 ^c4 | d4 z4 | z8 | z8 | z4 A4 | G6 G2 | F4 f4 | g8 | f8 | e8 | d8 | !fermata!^c4 d4 | d4 d4 | %58
w: An- ge-|sicht,|||ver-|wirf mich|nicht von|dei-|nem|An-|ge-|sicht, von|dei- nem|
 d4 ^c4 |"^Fuga" d4 z4 | z8 | z8 | z8 | z8 | z8 | z8 | z8 | z2 d4 d2 | d2 d2 d2 ^cB | A4 B2 AG | %70
w: An- ge-|sicht,||||||||und nimm|dei- nen heil'- gen _|Geist nicht von _|
 F4 ^G4 | (A2 B2) ^c2 d2 | A8- | (A2 B)^c d2 cB | A4 ^c4 | d2 d4 d2 | d2 d2 d2 ^cB | A4 B2 AG | %78
w: mir, von|mir, _ nicht von|mir,|_ _ _ nicht von _|mir, von|mir, und nimm|dei- nen heil'- gen _|Geist nicht von _|
 F4 =c4 | B2 g4 g2 | g2 g2 g2 fe | d4 e2 dc | B8- | B8- | B4 c2 BA | G4 g4 | g4 f4 | !fermata!g8 || %88
w: mir, von|mir, und nimm|dei- nen heil'- gen _|Geist nicht von _|mir,|_|* nicht von _|mir, nicht,|nicht von|mir!|
[K:Bb][M:3/4][Q:1/4=90]"^più lento""^Solo" B2 BA Bc |{/B} A2 A2 B2 | (c2 B2) A2 | BA G2 z2 | %92
w: Trö- ste _ mich _|wie- der mit|dei- * ner|Hil- * fe,|
 =B2 BA B2 | c2 d2 e2 | (f2 e2) d2 | ed c2 e2 | e6 | d6 | d6 | c4 c2 | (c6 | B3 A) B2 | B2 A2 D2 | %103
w: trö- ste _ mich|wie- der mit|dei- * ner|Hil- * fe, mit|dei-|ner|Hil-|fe, mit|dei-|* * ner|Hil- fe, mit|
 d4 d2 ||[K:G] d2 d2 d2 | (cd e2) c2 | (B2 A4) | G2"^Tutti"[Q:1/4=120]"^più animato" z2 z2 | z6 | %109
w: dei- ner|Hil- fe, mit|dei- * * ner|Hil- *|fe,||
 z2 B2 B2 | Be dc BA | B2 g2 g2 | g2 fe dc | B4 d2 | (e6- | e6- | e2 G2) F2 | E2 A2 A2 | %118
w: und der|freu- * di- * ge _|Geist, und der|freu- di- * ge _|Geist ent-|hal-||* * te|mich, und der|
 (3(B^cB dBcd | (3^cdc ecde | d3) ^c B2 | A4 z2 | z2 z2 d2 | d6- | d4 ^c2 | d2 z2 z2 | z6 | z6 | %128
w: freu- * * * * * *||* di- ge|Geist|ent-|hal-|* te|mich,|||
 z6 | z2 d2 g2 | g2 fe dc | B4 e2 | c6- | c6- | c4 B2 | A2 A2 A2 | (3(BcB dBcd | (3cdc edef | %138
w: |und der|freu- di- * ge _|Geist ent-|hal-||* te|mich, und der|freu- * * * * * *||
 g3) f e2 | d4 z2 | z2 z2 B2 | c6 | c6 | B2 d2 g2 | (g2 e2) g2 | (g2 d2) g2 | gedc BA | G4 B2 | %148
w: * di- ge|Geist|ent-|hal-|te|mich, und der|freud- * ge|Geist _ ent-|hal- * * * te _|mich, ent-|
!p! c6 | c6 | !fermata!B6 |] %151
w: hal-|te|mich.|
V:2
 z8 |!mf! G4 G2 B2 | E4 G2 G2 | A4 (A2 G2) | (F8 | D4 G2 F2 | E6) G2 | (G2 F2) z4 | z4 =F4 | %9
w: |Schaff' in mir|Gott, in mir|Gott, ein _|rei-||* nes|Herz _|und|
 E2 E2 E2 E2 | D4 D2 D2 | E4 D4 | D4 z4 | z2!p! G2"^cresc." G2 G2 | F2 FF F2 F2 | G4 G2 G2 | %16
w: gib mir ei- nen|neu- en, ge-|wis- sen|Geist,||||
 (F2 A2) G2!f! G2 | F4 E4 | F4 z4 |!mf! F4 F2 A2 | D4 F2 F2 | D4 G2 G2 | F4!p! F4 | F8- | F8- | %25
w: |||Schaff in mir|Gott, in mir|Gott, in mir|Gott ein|rei-||
 F4 B4 | F4 z4 | z4 z2 F2 |!<(! G2 G2 G2 G2!<)! | G4 G4 | F2 FF F2 F2 | !fermata!F4 z4 | %32
w: * nes|Herz,|und|gib mir ei- nen|neu- en,|neu- en ge- wis- sen|Geist,|
 z4!f! E2 E2 | E4 D2 D2 | D4 D2 G2 | G4 F4 || G2 z2 z4 | z8 | z8 | z8 | z8 | z4 z3 G | %42
w: ei- nen|neu- en ge-|wis- sen, ge-|wis- sen|Geist,|||||ver-|
 F3 F B,3 B, | E3 E A,3 A, | D6 G2 | F4 E4 | D3 F B3 B | E3 E A3 A | D3 D G4- | G4 F4 | E4 E4 | %51
w: wirf mich nicht, ver-|wirf mich nicht von|dei- nem|An- ge-|sicht, ver- wirf mich|nicht, ver- wirf mich|nicht von dei-|* nem|An- ge-|
 D4 z2 B2 | (B4 A4- | A4) G4 | (G4 F4-) | F4 E4 | !fermata!E4 A4 | G4 A4 | G4 G4 | F4 z4 | z8 | %61
w: sicht, von|dei- *|* nem|An- *|* ge-|sicht, *|||||
 z8 | z8 | z2 A4 A2 | A2 A2 A2 ^GF | E4 F2 ED | ^C4 E4 | (D2 E2) F2 G2 | D8- | (D2 E)F G2 FE | %70
w: ||und nimm|dei- nen heil'- gen _|Geist nicht von _|mir, von|mir, _ nicht von|mir,|_ _ _ nicht von _|
 D4 D4 | (^C2 D2) E2 F2 | ^C8- | (C2 D)E D2 E2 | E4 =G4 | F2 d4 d2 | d2 d2 d2 ^cB | A4 B2 AG | %78
w: mir, von|mir, _ _ _|_||||||
 F4 F4 | (G2 A2) B2 c2 | G8- | (G2 A)B c2 BA | G8- | G8- | G8- | G4 G4 | A4 A4 | !fermata!B8 || %88
w: * von|mir, _ nicht von|mir,|_ _ _ nicht von _|mir,|_||* nicht,|nicht von|mir!|
[K:Bb][M:3/4] G2 G^F GA |{/G} ^F2 F2 G2 | (A2 G2) ^F2 | G2 D2 z2 | G2 G2 G2 | G2 G2 G2 | %94
w: Trö- ste _ mich _|wie- der mit|dei- * ner|Hil- fe,|trö- ste mich|wie- der mit|
 (_A2 G2) F2 | GF E2 G2 | =A6 | A6 | G6 | G4 G2 | (^F6 | G3 ^F) G2 | G2 ^F2 z2 | z2 z2 ^F2 || %104
w: dei- * ner|Hil- * fe, mit|dei-|ner|Hil-|fe, mit|dei-|* * ner|Hil- fe,|mit|
[K:G] (G6 | A4) A2 | D6 | D2 G2 G2 | Gc BA GF | G6- | G6 | z2 G2 G2 | A2 Ac BA | G4 A2 | (G2 BAGF | %115
w: dei-|* ner|Hil-|fe, und der|freu- * di- * ge _|Geist,|_|und der|freu- di- * ge _|Geist ent-|hal- * * * *|
 G3 FED | ^C2 E2) D2 | ^C2 E2 E2 | (F6 | A6- | A3) A G2 | F4 z2 | z2 z2 F2 | (G4 A2 | G4) E2 | %125
w: |* * te|mich und der|freu-||* di- ge|Geist|ent-|hal- *|* te|
 F2 D2 D2 | DG FE D^C | D2 F2 F2 | FB AG FE | F2 G2 G2 | A2 Ac BA | G4 B2 | A6- | A6- | A4 G2 | %135
w: mich, und der|freu- * di- * ge _|Geist, und der|freu- * di- * ge _|Geist, * *||||||
 F2 F2 F2 | (3(GAG BGAB | (3ABA cBcA | G3) G G2 | G4 D2 | G6- | G6 | F6 | G2 G2 G2 | G4 G2 | %145
w: ||||* ent-|hal-||te|mich, * *||
 G4 G2 | G4 F2 | G4 G2 |!p! G6 | F6 | !fermata!G6 |] %151
w: ||||||
V:3
!mf! d4 d2 d2 | B4 B2 B2 | G4 c2 d2 | e4 z2 e2 | (A2 c2 B2 A2 | G8- | G2 B2 A2) G2 | d4 z4 | %8
w: Schaff' in mir|Gott, in mir|Gott, in mir|Gott ein|rei- * * *||* * * nes|Herz,|
 z4 G4 | G2 G2 A2 A2 | A4 G2 G2 | c4 A4 | B2!p! A2 G2 F2 | E6"^cresc." e2 | d2 dd d2 d2 | %15
w: und|gib mir ei- nen|neu- en, ge-|wis- sen|Geist, und gib mir|ei- nen|neu- en ge- wis- sen|
 ^c4 c2 c2 | d4 d2!f! B2 | A4 A4 | A4 z4 |!mf! A4 A2 A2 | F4 d2 ^c2 | B4 e2 d2 | ^c4!p! d4 | %23
w: Geist, ei- nen|neu- en ge-|wis- sen|Geist.|||||
 (^A4 B4 | ^c4 d4 | ^A4) B4 | (B2 ^A2) z2 A2 |!<(! B2 B2 B2 B2!<)! | B4 B4 | A2 A2 A2 A2 | %30
w: |||||||
 A2 AA A2 A2 | !fermata!A4 z4 | z4!f! B2 B2 | A4 A2 A2 | (G2 BA) G2 e2 | d4 c4 || B3 B e3 e | %37
w: ||ei- nen|neu- en ge-|wis- * * sen, ge-|wis- sen|Geist, ver- wirf mich|
 A3 A d3 d | G3 G c4- | c4 B4 | A4 A4 | G4 z4 | z8 | z8 | z4 G4 | A4 A4 | D4 z3 d | ^c3 c F3 F | %48
w: nicht, ver- wirf mich|nicht von dei-|* nem|An- ge-|sicht,|||ver-|wirf mich|nicht, ver-|wirf mich nicht, ver-|
 B3 B E3 E | A4 d4 | d4 ^c4 | d4 d4 | (d4 ^c4- | c4) B4 | (B4 A4-) | A4 ^G4 | !fermata!A4 A4 | %57
w: wirf mich nicht von|dei- nem|An- ge-|sicht, von|dei- *|* nem|An- *|* ge-|sicht, von|
 B4 d4 | B4 A4 | A2 d4 d2 | d2 d2 d2 ^cB | A4 B2 AG | F4 ^G4 | (A2 B2) ^c2 d2 | A8- | %65
w: dei- nem|An- ge-|sicht, und nimm|dei- nen heil'- gen _|Geist nicht von _|mir, von|mir, _ nicht von|mir,|
 A2 B^c d2 cB | A4 G4 | (F2 G2) A2 B2 | F4 G4 | F4 ^c2 c2 | d4 B4 | A8- | A8 | z4 A2 ^G2 | A4 A4 | %75
w: _ _ _ nicht von _|mir, von|mir, _ nicht von|mir, von|mir, nicht von|mir, von|mir,|_|nicht von|mir, von|
 A2 d4 d2 | d2 d2 d2 ^cB | A4 B2 AG | F4 A4 | (B2 c2) d2 e2 | B4 z4 | z8 | z2 G4 G2 | G2 G2 G2 Bc | %84
w: mir, und nimm|dei- nen heil'- gen _|Geist nicht von _|mir, von|mir, _ nicht von|mir,||und nimm|dei- nen heil'- gen _|
 d4 c2 de | d4 B4 | e4 d4 | !fermata!d8 ||[K:Bb][M:3/4] G2 G2 G2 | d2 c2 B2 | (A2 d2) D2 | %91
w: Geist nicht von _|mir, nicht,|nicht von|mir!||||
 G2 G2 z2 | d2 d2 d2 | c2 =B2 c2 | c4 =B2 | c=B c2 c2 | c6 | B6 | B6 | A4 A2 | d6- | d4 d2 | %102
w: |||||||||||
 d2 d2 z2 | z2 z2 A2 ||[K:G] (d6 | ed c2) e2 | (G2 ^F4) | G2 B2 B2 | ce dc BA | G6 | z6 | %111
w: |||||||||
 z2 Bc dB | e2 d2 d2 | d4 d2 | (B6 | A6- | A4) A2 | A2 ^c2 c2 | (3(ded fdef | (3efe ged^c | %120
w: |||||||||
 d3) d d2 | d4 z2 | z2 z2 d2 | (d2 B2 c2 | B4) A2 | A2 F2 F2 | FB AG FE | D6- | D6 | z2 Bc dB | %130
w: |||||||Geist,|_|und _ der _|
 e2 d2 d2 | d4 e2 | (e3 dcB | A2 cBAG | d4) d2 | d2 d2 d2 | d6- | d6- | d3 d c2 | B4 z2 | %140
w: freu- di- ge|Geist ent-|hal- * * *||* te|mich, und der|freu-||* di- ge|Geist|
 z2 z2 d2 | e6 | d6 | d2 z B Bc/d/ | e2 z e ed/c/ | d2 z d dc/B/ | ec d2 d2 | B4 d2 |!p! e6 | d6 | %150
w: ent-|hal-|te|mich, der freu- di- ge|Geist, der freu- di- ge|Geist, der freu- di- ge|Geist ent- hal- te|mich, ent-|hal-|te|
 !fermata!d6 |] %151
w: mich.|
V:4
!mf! G,4 G,2 F,2 | E,4 E,2 D,2 | C,4 C2 B,2 | A,2 G,2 F,2 E,2 | D,4 D,4 | (G,2 F,2 E,2 D,2 | %6
w: |||* ein rei- nes|Herz, ein|rei- * * *|
 C,6) ^C,2 | D,4 z4 | z4 B,,4 | C,2 C,2 C,2 C,2 | C,4 B,,2 B,,2 | A,,4 D,4 | G,2!p! F,2 E,2 D,2 | %13
w: * nes|Herz,||||||
 ^C,6"^cresc." C,2 | D,2 D,D, D,2 D,2 | E,4 E,2 E,2 | F,4 G,2!f! G,2 | A,4 A,,4 | D,4 z4 | %19
w: ||||||
!mf! D,4 D,2 ^C,2 | B,,4 B,2 A,2 | G,4 E,2 E,2 | F,4!p! F,4 | F,8- | F,8- | F,4 ^E,4 | F,4 z4 | %27
w: Schaff in mir|Gott, in mir|Gott, in mir|Gott ein|rei-||* nes|Herz,|
 z4 z2 B,,2 |!<(! E,2 E,2 E,2 E,2!<)! | A,,4 A,,4 | D,2 D,D, D,2 D,2 | !fermata!^D,4 z4 | %32
w: und|gib mir ei- nen|neu- en,|neu- en ge- wis- sen|Geist,|
 z4!f! E,2 =D,2 | ^C,4 D,2 =C,2 | (B,,2 G,,A,,) B,,2 C,2 | D,4 D,4 || G,2 z2 z3 G, | %37
w: ||||* ver-|
 F,3 F, B,,3 B,, | E,3 E, A,,3 A,, | D,4 G,4 | G,4 F,4 | G,4 z4 | z8 | z8 | z8 | z8 | z8 | z8 | %48
w: wirf mich nicht, ver-|wirf mich nicht von|dei- nem|An- ge-|sicht,|||||||
 z8 | z8 | z8 | z3 F, B,3 B, | E,3 E, A,3 A, | D,3 D, G,3 G, | ^C,3 C, F,3 F, | B,,3 B,, E,3 E, | %56
w: |||ver- wirf mich|nicht, ver- wirf mich|nicht, ver- wirf mich|nicht, ver- wirf mich|nicht, ver- wirf mich|
 !fermata!A,,4 F,4 | G,4 F,4 | E,4 A,4 | D,4 z4 | z8 | z8 | z8 | z8 | z8 | z8 | z8 | z8 | z8 | z8 | %70
w: nicht, *||||||||||||||
 z8 | z2 A,4 A,2 | A,2 A,2 A,2 ^G,F, | E,4 F,2 E,D, | ^C,4 A,,4 | D,2 D4 D2 | D2 D2 D2 ^CB, | %77
w: |und nimm|dei- nen heil'- gen _|Geist nicht von _|mir, von|mir, * *||
 A,4 B,2 A,G, | F,4 D,4 | G,4 G,2 G,,2 | G,,8- | G,,4 z4 | z2 G,4 G,2 | G,2 G,2 G,2 F,E, | %84
w: ||* nicht von|mir,|_|||
 D,4 E,2 D,C, | B,,4 G,,4 | C,4 D,4 | !fermata!G,,8 ||[K:Bb][M:3/4] z6 | z6 | z6 | G,2 G,2 G,2 | %92
w: |||||||Trö- ste mich,|
 F,2 F,2 F,2 | E,2 D,2 C,2 | (F,2 G,2) G,2 | C,2 C,2 z2 | F,G,A,F,G,A, | B,,C,D,B,,C,D, | %98
w: trö- ste mich|wie- der mit|dei- * ner|Hil- fe,|trö- * * * * *||
 E,F,G,E,F,G, | A,,B,,C,A,,B,,C, | D,=E,^F,D,E,F, | G,^F, G,D, B,,G,, | D,2 D,2 z2 | z2 z2 C,2 || %104
w: |||* * ste * mich *|wie- der|mit|
[K:G] (B,,6 | A,,4) C,2 | D,6 | G,,4 z2 | z6 | z2 G,2 G,2 | G,C B,A, G,F, | G,2 G,A, B,G, | %112
w: dei-|* ner|Hil-|fe,||und der|freu- * di- * ge _|Geist, und _ der _|
 C2 D2 D,2 | G,4 F,2 | (E,2 G,F,E,D, | ^C,2 E,D,C,B,, | A,,2 ^C,2) D,2 | A,,2 A,2 A,2 | (A,6 | %119
w: freu- di- ge|Geist ent-|hal- * * * *||* * te|mich, und der|freu-|
 G,6 | F,3) F, G,2 | D,4 D,2 | (D4 C2 | B,2 G,2 F,2 | G,2 E,2) A,2 | D,4 z2 | z6 | z2 D,2 D,2 | %128
w: |* di- ge|Geist ent-|hal- *||* * te|mich,||und der|
 D,G, F,E, D,^C, | D,2 G,A, B,G, | C2 D2 D,2 | G,4 ^G,2 | (A,2 CB,A,G, | F,2 A,G,F,E, | %134
w: freu- * di- * ge *|Geist, * * * *|||||
 D,2 F,2) G,2 | D,2 D2 D2 | D6- | (D6 | B,3) B, C2 | G,4 z2 | z2 z2 G,2 | G,6 | G,6 | %143
w: |||||||||
 G,2 z G, G,A,/B,/ | C2 z C CB,/A,/ | B,2 z B, B,A,/G,/ | CC D2 D,2 | G,4 G,,2 |!p! G,,6 | G,,6 | %150
w: |||||||
 !fermata!G,,6 |] %151
w: |

